X:8631
T:Kingsbridge Assembly. JC.241
T:Liberty For The Sailors,aka. JC.241
M:6/8
L:1/8
Q:190
S:John Clare,Poet,Helpstone (1793-1864)
R:Jig
O:England241
A:Northamptonshire
N:
Z:Phil Headford
K:D
g2ef2e|dcdA2A|BGB AFA|GDGF2D|!f2ef2e|dcdA2A|
BAG FGE|D2D"crot"D3:|!:CFA AFD|GABB3|Ace ecA|def"crot"f3|!
afd BcB|gec ABA|BAG FGE|D2D"qu"D3:|]


